svgs/leaflet.svg

<svg xmlns="http://www.w3.org/2000/svg" viewBox="0 0 192 192"><path d="M96 16.5s-62.606 36.904-77.611 90.364C3.383 160.324 82.068 175.5 96 175.5m-76.323-73.144 61.816 26.554" fill="none" stroke="#000" stroke-width="12" stroke-linecap="round" stroke-linejoin="round"/><path d="m96 85.262-14.506 19.916v68.392M42.577 62.776 96 85.259M96 16.5s62.606 36.904 77.611 90.364C188.616 160.324 109.933 175.5 96 175.5m76.324-73.144-61.816 26.554" fill="none" stroke="#000" stroke-width="12" stroke-linecap="round" stroke-linejoin="round"/><path d="m96 85.262 14.507 19.916v68.392m38.917-110.794L96 85.259m0 .003V16.5" fill="none" stroke="#000" stroke-width="12" stroke-linecap="round" stroke-linejoin="round"/></svg>

<svg
    xmlns="http://www.w3.org/2000/svg"
    viewBox="0 0 192 192"
    id="vector">
    <path
        id="path"
        d="M 96 16.5 C 96 16.5 33.394 53.404 18.389 106.864 C 3.383 160.324 82.068 175.5 96 175.5 M 19.677 102.356 L 81.493 128.91"
        fill="none"
        stroke="#000000"
        stroke-width="12"
        stroke-linecap="round"
        stroke-linejoin="round"/>
    <path
        id="path_1"
        d="M 96 85.262 L 81.494 105.178 L 81.494 173.57 M 42.577 62.776 L 96 85.259 M 96 16.5 C 96 16.5 158.606 53.404 173.611 106.864 C 188.616 160.324 109.933 175.5 96 175.5 M 172.324 102.356 L 110.508 128.91"
        fill="none"
        stroke="#000000"
        stroke-width="12"
        stroke-linecap="round"
        stroke-linejoin="round"/>
    <path
        id="path_2"
        d="M 96 85.262 L 110.507 105.178 L 110.507 173.57 M 149.424 62.776 L 96 85.259 M 96 85.262 L 96 16.5"
        fill="none"
        stroke="#000000"
        stroke-width="12"
        stroke-linecap="round"
        stroke-linejoin="round"/>
</svg>
